src/assets/logo-udemy.svg

<svg width="237" height="94" viewBox="0 0 237 94" fill="none" xmlns="http://www.w3.org/2000/svg">
<path d="M37.4742 21.17L19.1546 10.585L0.837891 21.17V10.585L19.1575 0L37.4771 10.585V21.17H37.4742Z" fill="#A435F0"/>
<path d="M10.4354 34.9615V58.2921C10.4354 64.32 14.9335 67.2588 19.1575 67.2588C23.4169 67.2588 27.8826 64.2434 27.8826 58.2125V34.9615H37.4771V58.8492C37.4771 64.4026 35.7321 68.6855 32.2451 71.6243C28.7521 74.5602 24.3925 75.9898 19.075 75.9898C13.7633 75.9898 9.40081 74.5631 5.99333 71.6243C2.5829 68.6884 0.837891 64.5647 0.837891 59.085V34.9615H10.4354ZM120.439 63.9575L127.566 68.0753C123.218 73.0333 117.42 75.9102 110.134 75.9102C103.867 75.9102 98.7116 74.006 94.8266 70.2772C90.9416 66.5455 88.9607 61.5433 88.9607 55.2737V54.9613C88.9607 48.6091 90.9416 43.5303 94.8266 39.6423C98.7941 35.7544 103.793 33.8502 109.898 33.8502C115.69 33.8502 120.445 35.7544 124.091 39.6423C127.82 43.5303 129.644 48.2937 129.644 54.0092C129.644 55.8514 129.435 57.8116 129.435 57.8116H98.4315C98.9533 63.8897 103.569 67.8159 110.452 67.8159C114.225 67.8159 117.535 66.5455 120.439 63.9575ZM102.205 44.4853C100.159 46.077 98.9827 48.0343 98.6762 50.357H119.958C119.87 48.1109 118.847 46.1566 116.955 44.5649C114.968 42.8169 112.669 41.9444 109.895 41.9444C106.962 41.9444 104.342 42.8169 102.202 44.4824L102.205 44.4853ZM217.036 81.3014C213.145 90.501 209.071 93.6285 202.825 93.6285H198.495V85.1157H201.997C204.146 85.1157 206.142 84.308 208.046 79.9131L209.95 75.5122L193.531 34.9615H203.288L214.946 64.1668L226.922 34.9615H236.676L217.039 81.3014H217.036ZM74.8356 19.6484H84.3536V74.9581H74.8356V71.2765C72.6662 73.2779 68.5601 75.8306 62.0664 75.8306C56.4394 75.8306 51.6789 73.8468 47.7939 69.8763C43.9855 65.8292 42.0843 60.9096 42.0843 54.9554C42.0843 49.0041 43.9855 44.0844 47.7939 40.114C51.6789 36.0698 56.4364 34.086 62.0664 34.086C66.7974 34.086 71.6905 35.7632 74.8356 38.5841V19.6484ZM75.5519 54.9613C75.5519 51.4653 74.3581 48.5295 71.9794 46.2303C69.6802 43.9282 66.7473 42.7374 63.3339 42.7374C59.9235 42.7374 57.1497 43.9282 54.8506 46.2303C52.631 48.5295 51.5197 51.4653 51.5197 54.9613C51.5197 58.4513 52.6339 61.3871 54.8506 63.6892C57.1497 65.9913 59.9235 67.1822 63.3339 67.1822C66.7473 67.1822 69.6802 65.9913 71.9794 63.6892C74.3581 61.3871 75.5519 58.4513 75.5519 54.9613ZM178.737 34.1715C187.014 34.1715 192.618 39.7691 192.618 50.1979V74.9581H183.1V51.5449C183.1 46.0711 180.482 42.6578 175.961 42.6578C171.283 42.6578 168.034 46.4691 168.034 51.9429V74.961H158.596V51.5508C158.596 46.0741 155.981 42.6607 151.457 42.6607C147.021 42.6607 143.687 46.5487 143.687 51.9458V74.961H134.251V34.9674H143.687V39.1265C145.37 37.0631 148.745 34.1685 154.472 34.1685C161.246 34.1685 164.146 38.0948 165.175 40.0609C167.751 37.1693 171.507 34.1685 178.737 34.1685V34.1715Z" fill="black"/>
</svg>

<svg width="237" height="94" fill="none" xmlns="http://www.w3.org/2000/svg"><path d="m37.474 21.17-18.32-10.585L.839 21.17V10.585L19.158 0l18.32 10.585V21.17h-.004Z" fill="#A435F0"/><path d="M10.435 34.962v23.33c0 6.028 4.498 8.967 8.722 8.967 4.26 0 8.726-3.016 8.726-9.047v-23.25h9.594v23.887c0 5.554-1.745 9.837-5.232 12.775-3.493 2.936-7.852 4.366-13.17 4.366-5.312 0-9.674-1.427-13.082-4.366-3.41-2.936-5.155-7.06-5.155-12.539V34.962h9.597ZM120.44 63.957l7.127 4.118c-4.348 4.958-10.146 7.835-17.432 7.835-6.267 0-11.422-1.904-15.307-5.633-3.885-3.731-5.866-8.734-5.866-15.003v-.313c0-6.352 1.98-11.43 5.866-15.319 3.967-3.888 8.966-5.792 15.071-5.792 5.792 0 10.547 1.904 14.193 5.792 3.729 3.888 5.553 8.652 5.553 14.367 0 1.842-.209 3.803-.209 3.803H98.431c.522 6.078 5.138 10.004 12.021 10.004 3.773 0 7.083-1.27 9.987-3.858Zm-18.234-19.472c-2.046 1.592-3.222 3.55-3.529 5.872h21.282c-.088-2.246-1.111-4.2-3.003-5.792-1.987-1.748-4.286-2.62-7.06-2.62-2.933 0-5.553.872-7.693 2.537l.003.003Zm114.831 36.816c-3.891 9.2-7.965 12.328-14.211 12.328h-4.33v-8.513h3.502c2.149 0 4.145-.808 6.049-5.203l1.904-4.4-16.419-40.552h9.757l11.658 29.206 11.976-29.206h9.754l-19.637 46.34h-.003Zm-142.2-61.653h9.518v55.31h-9.518v-3.681c-2.17 2-6.276 4.554-12.77 4.554-5.627 0-10.387-1.984-14.272-5.955-3.808-4.047-5.71-8.966-5.71-14.92 0-5.952 1.901-10.872 5.71-14.842 3.885-4.044 8.642-6.028 14.272-6.028 4.731 0 9.624 1.677 12.77 4.498V19.648Zm.716 35.313c0-3.496-1.194-6.431-3.573-8.73-2.299-2.303-5.232-3.494-8.645-3.494-3.41 0-6.184 1.191-8.483 3.493-2.22 2.3-3.331 5.235-3.331 8.731 0 3.49 1.114 6.426 3.33 8.728 2.3 2.302 5.073 3.493 8.484 3.493 3.413 0 6.346-1.19 8.645-3.493 2.38-2.302 3.573-5.238 3.573-8.728Zm103.185-20.79c8.277 0 13.881 5.598 13.881 16.027v24.76H183.1V51.545c0-5.474-2.618-8.887-7.139-8.887-4.678 0-7.927 3.811-7.927 9.285V74.96h-9.438v-23.41c0-5.477-2.615-8.89-7.139-8.89-4.436 0-7.77 3.888-7.77 9.285V74.96h-9.436V34.967h9.436v4.16c1.683-2.064 5.058-4.959 10.785-4.959 6.774 0 9.674 3.927 10.703 5.893 2.576-2.892 6.332-5.892 13.562-5.892v.003Z" fill="#000"/></svg>
